!!!!SEGMENT: pl-wtm--3008-fp-10671_rozycki-ludomir--pan-twardowski-op-45-krakowiak.krn
!!!cenid: 19xx:151
!!!COM: Różycki, Ludomir
!!!COM-rismID: pe50045573
!!!CDT: 1883-1953
!!!CNT: Polish
!!!OTL: Pan Twardowski op. 45/Krakowiak
!!!PDT: 1923
!!!AGN: Secular; Krakowiak
!!!YEC: Copyright 2022 Narodowy Instytut Fryderyka Chopina (https://polishscores.org)
!!!YEM: License CC-BY-4.0 (https://creativecommons.org/licenses/by/4.0)
!!!SMS-siglum: PL-Wtm
!!!SMS-shelfmark: 3008 fp 10671
!!!SMS-variant:
!!!SMS-altvar:
!!!SMS-shelfwork: W
!!!NIFC-rismSourceID: 1001190009
!!!NIFC-rismChildID: 1001190009
!!!NIFC-islandoraID: pl-wtm:89479
!!!URL-pdf-islandora: https://repozytorium.nifc.pl/islandora/object/pl-wtm%3A89479/datastream/PDF/view
!!!URL-scan: https://polish.musicsources.pl/pl/lokalizacje/galeria/druki-muzyczne/19362/3 @EN{Scan on Polish Music Sources Website} @PL{Skany w portalu Dziedzictwo Muzyki Polskiej w otwartym dostępie}
!!!IIIF:
!!!ONB-nifc:
!!!OMD: Andante.
!!!AIN: 1 piano
!!!key: F
**kern	**kern	**kern	**dynam	**kern
*part1	*part1	*part1	*part1	*part1
*staff4	*staff3	*staff2	*	*staff1
*ICklav	*ICklav	*ICklav	*	*ICklav
*Ipiano	*Ipiano	*Ipiano	*	*Ipiano
*I"Piano	*I"Piano	*I"Piano	*	*I"Piano
*clefF4	*clefF4	*clefG2	*	*clefG2
*k[b-]	*k[b-]	*k[b-]	*	*k[b-]
*F:	*F:	*F:	*	*F:
*M2/4	*M2/4	*M2/4	*	*M2/4
*>[A,B,B,C,A,B,B,C]	*>[A,B,B,C,A,B,B,C]	*>[A,B,B,C,A,B,B,C]	*	*>[A,B,B,C,A,B,B,C]
=1	=1	=1	=1	=1
*>A	*>A	*>A	*	*>A
*	*^	*^	*	*
*	*clefG2	*	*	*	*	*
!	!	!	!LO:TX:a:B:t=Krakowiak.	!	!	!
2ryy	8ryy	[2e-X\	8r	8ryy	mf	2ryy
.	(([4.g/	.	(16g/LL	4g\	.	.
.	.	.	16b-/JJ	.	.	.
.	.	.	16dd-X/LL	.	.	.
.	.	.	16b-/	.	.	.
.	.	.	16dd-/	8ryy	.	.
.	.	.	16ff/JJ	.	.	.
=2	=2	=2	=2	=2	=2	=2
2ryy	4g/]	2e-\]	4ee-X/	4r	.	2ryy
.	4f/)	.	4cc/	4a\	.	.
=3	=3	=3	=3	=3	=3	=3
2ryy	2g/	2e-X\	2ee-X/	2b-\	.	2ryy
*	*v	*v	*	*	*	*
*	*	*v	*v	*	*
=4	=4	=4	=4	=4
2ryy	4d/ 4g#X	4bn\ 4een	.	2ryy
.	4en/) 4a#X	4cc#X\ 4ff#X	.	.
*	*clefF4	*	*	*
=5	=5	=5	=5	=5
*	*^	*	*	*
!	!	!	!LO:TX:a:B:t=Tempo di Krakowiak.	!	!
2ryy	8r	2FF^\ 2C	[2b-X\) [2dd [2gg [2ccc	p	2ryy
.	4C^/ 4G	.	.	.	.
.	8C'/ 8G	.	.	.	.
=6	=6	=6	=6	=6	=6
2ryy	8r	2FF^\ 2C	2b-\_ 2dd_ 2gg_ 2ccc_	.	2ryy
.	4C^/ 4G	.	.	.	.
.	8C'/ 8G	.	.	.	.
=7	=7	=7	=7	=7	=7
2ryy	8r	2FF^\ 2C	2b-\_ 2dd_ 2gg_ 2ccc_	.	2ryy
.	4C^/ 4G	.	.	.	.
.	8C'/ 8G	.	.	.	.
=8	=8	=8	=8	=8	=8
2ryy	8r	2FF^\ 2C	2b-\] 2dd] 2gg] 2ccc]	.	2ryy
.	4C^/ 4G	.	.	.	.
.	8C'/ 8G	.	.	.	.
!!LO:LB:g=original
=9!|:	=9!|:	=9!|:	=9!|:	=9!|:	=9!|:
*>B	*>B	*>B	*>B	*	*>B
*	*	*	*^	*	*
!	!	!	!LO:TX:a:B:t=Rubato in tempo	!	!	!
2ryy	8r	2FF\ 2C	(8c/L	[2c\	mf	2ryy
.	4C^/ 4G	.	16e/L	.	.	.
.	.	.	16g/JJ	.	.	.
.	.	.	16b-/LL	.	.	.
.	.	.	16g/	.	.	.
.	8C'/ 8G	.	16b-/	.	.	.
.	.	.	16dd/JJ	.	.	.
=10	=10	=10	=10	=10	=10	=10
2ryy	8r	2FF\ 2C	8dd/)	8c\]	.	2ryy
.	(4C^/ 4A	.	(4cc^/	4f\	.	.
.	8C'/) 8F#X	.	8a'/)	8e-X\	.	.
=11	=11	=11	=11	=11	=11	=11
2ryy	8r	2FF\ 2C	8dd/	8r	.	2ryy
.	4C^/ 4G	.	(4cc^/	4d\	.	.
.	8C'/ 8B-	.	8a'/)	8en\	.	.
=12	=12	=12	=12	=12	=12	=12
2ryy	8r	2FF\ 2C	8dd/	8r	.	2ryy
.	4C^/ 4G	.	(4cc^/	4f\	.	.
.	8C'/ 8c	.	8a'/)	8f\	.	.
=13	=13	=13	=13	=13	=13	=13
2ryy	8r	2FF\ 2C	(8c/L	[2c\	.	2ryy
.	4C^/ 4G	.	16e/L	.	.	.
.	.	.	16g/JJ	.	.	.
.	.	.	16b-/LL	.	.	.
.	.	.	16g/	.	.	.
.	8C'/ 8G	.	16b-/	.	.	.
.	.	.	16dd/JJ	.	.	.
=14	=14	=14	=14	=14	=14	=14
2ryy	8r	2FF\ 2C	8dd/)	8c\]	.	2ryy
.	4C^/ 4A	.	(4cc^/	4f\	.	.
.	8C'/ 8F#X	.	8a'/)	8e-X\	.	.
=15	=15	=15	=15	=15	=15	=15
2ryy	8r	2FF\ 2C	8dd/	8r	.	2ryy
.	4C^/ 4G	.	(4cc^/	4d\	.	.
.	8C'/ 8B-	.	8a'/)	8en\	.	.
*	*	*	*v	*v	*	*
=16	=16	=16	=16	=16	=16
2ryy	8r	2FF\ 2C	2f/	.	2ryy
.	4C^/ 4A	.	.	.	.
.	8C'/ 8A	.	.	.	.
*	*v	*v	*	*	*
!!LO:LB:g=original
=17:|!	=17:|!	=17:|!	=17:|!	=17:|!
*>C	*>C	*>C	*	*>C
2ryy	8CC/ 8GG	(8.e/L 8.cc	f	2ryy
.	4GG^/ 4C 4G	.	.	.
.	.	16g/Jk)	.	.
.	.	(16f/LL	.	.
.	.	16e/	.	.
.	8GG'/ 8C 8G	16d/	.	.
.	.	16c/JJ)	.	.
=18	=18	=18	=18	=18
2ryy	8CC/ 8GG	(8.e/L 8.cc	.	2ryy
.	4GG^/ 4C 4G	.	.	.
.	.	16g/Jk)	.	.
.	.	(16f/LL	.	.
.	.	16e/	.	.
.	8GG'/ 8C 8G	16d/	.	.
.	.	16c/JJ)	.	.
=19	=19	=19	=19	=19
2ryy	8CC/ 8GG	(16c/LL	.	2ryy
.	.	16Bn/	.	.
.	4GG^/ 4C 4G	16c/	.	.
.	.	16d/JJ)	.	.
.	.	(16e/LL	.	.
.	.	16d/	.	.
.	8GG'/ 8C 8G	16e/	.	.
.	.	16f/JJ)	.	.
=20	=20	=20	=20	=20
2ryy	8CC/ 8GG	(16g/LL	.	2ryy
.	.	16f#X/	.	.
.	4GG^/ 4C 4G	16g/	.	.
.	.	16a/JJ)	.	.
.	.	(16g/LL	.	.
.	.	16a/	.	.
.	8GG^/ 8C 8G	16bn/	.	.
.	.	16cc/JJ)	.	.
=21	=21	=21	=21	=21
2ryy	8CC/ 8AA	(8.f#X/L 8.dd	.	2ryy
.	4AA^\ 4D 4A	.	.	.
.	.	16a/Jk	.	.
.	.	16g/LL	.	.
.	.	16f#/	.	.
.	8AA'\ 8D 8A	16e/	.	.
.	.	16d/JJ)	.	.
!!LO:LB:g=original
=22	=22	=22	=22	=22
2ryy	8CC/ 8AA	(8.f#X/L 8.dd	.	2ryy
.	4AA^\ 4D 4A	.	.	.
.	.	16a/Jk	.	.
.	.	16g/LL	.	.
.	.	16f#/	.	.
.	8AA'\ 8D 8A	16e/	.	.
.	.	16d/JJ)	.	.
=23	=23	=23	=23	=23
2ryy	8CC/ 8AA	(16d/LL	.	2ryy
.	.	16c#X/	.	.
.	4AA^\ 4D 4A	16d/	.	.
.	.	16e/JJ)	.	.
.	.	(16f#X/LL	.	.
.	.	16e/	.	.
.	8AA'\ 8D 8A	16f#/	.	.
.	.	16g/JJ)	.	.
=24	=24	=24	=24	=24
2ryy	8CC/ 8AA	(16a\LL	.	2ryy
.	.	16bn\	.	.
.	4AA^\ 4D 4A	16cc\	.	.
.	.	16dd\JJ)	.	.
.	.	(16a\LL	.	.
.	.	16b\	.	.
.	8AA'\ 8D 8A	16cc\	.	.
.	.	16dd\JJ)	.	.
=25	=25	=25	=25	=25
2ryy	8BBBn/ 8EE 8BBn	(8.g#X\L 8.ee	.	2ryy
.	4BB^\ 4E 4Bn	.	.	.
.	.	16bn\Jk)	.	.
.	.	(16a/LL	.	.
.	.	16g#/	.	.
.	8BB'\ 8E 8B	16f#X/	.	.
.	.	16e/JJ)	.	.
=26	=26	=26	=26	=26
2ryy	8BBBn/ 8EE 8BBn	(8.g#X\L 8.ee	.	2ryy
.	4BB^\ 4E 4Bn	.	.	.
.	.	16bn\Jk)	.	.
.	.	(16a/LL	.	.
.	.	16g#/	.	.
.	8BB'\ 8E 8B	16f#X/	.	.
.	.	16e/JJ)	.	.
!!LO:LB:g=original
=27	=27	=27	=27	=27
2ryy	8BBBn/ 8EE 8BBn	(16e/LL	.	2ryy
.	.	16d#X/	.	.
.	4BB^\ 4E 4Bn	16e/	.	.
.	.	16f#X/JJ)	.	.
.	.	(16g#X/LL	.	.
.	.	16f#/	.	.
.	8BB'\ 8E 8B	16g#/	.	.
.	.	16a/JJ)	.	.
=28	=28	=28	=28	=28
2ryy	8BBBn/ 8EE 8BBn	(16bn\LL	.	2ryy
.	.	16cc#X\	.	.
.	4BB^\ 4E 4Bn	16dd\	.	.
.	.	16ee\JJ)	.	.
.	.	(16b\LL	.	.
.	.	16cc#\	.	.
.	8BB'\ 8E 8B	16dd\	.	.
.	.	16ee\JJ)	.	.
=29	=29	=29	=29	=29
.	.	(8qf/	.	.
2ryy	8AAA/ 8AA	(8.ff\L)	sfz	2ryy
.	4C^\ 4F 4c	.	.	.
.	.	16ccn\Jk)	.	.
.	.	(16b-X/LL	.	.
.	.	16a/	.	.
.	8C'\ 8F 8c	16g/	.	.
.	.	16f/JJ)	.	.
=30	=30	=30	=30	=30
.	.	(8qf/	.	.
2ryy	8AAA/ 8AA	(8.ff\L)	sfz	2ryy
.	4C^\ 4F 4c	.	.	.
.	.	16cc\Jk)	.	.
.	.	(16b-/LL	.	.
.	.	16a/	.	.
.	8C'\ 8F 8c	16g/	.	.
.	.	16f/JJ)	.	.
=31	=31	=31	=31	=31
2ryy	8AAA/ 8AA	(16ff#X\LL	sfz	2ryy
.	.	16ee\	.	.
.	4D^\ 4F#X 4d	16dd\	.	.
.	.	16cc\JJ)	<	.
.	.	(16ff#\LL	.	.
.	.	16ee\	.	.
.	8D\ 8F# 8d	16dd\	.	.
.	.	16cc\JJ)	.	.
!!LO:LB:g=original
=32	=32	=32	=32	=32
2ryy	8AAA-X/ 8AA-X	(32ff#X\LLL	.	2ryy
.	.	32ee\	.	.
.	.	32dd\	.	.
.	.	32cc\JJJ)	.	.
.	4D^\ 4F#X 4d	(32ff#\LLL	.	.
.	.	32ee\	.	.
.	.	32dd\	.	.
.	.	32cc\JJJ)	.	.
.	.	(32ff#\LLL	.	.
.	.	32ee\	.	.
.	.	32dd\	.	.
.	.	32cc\JJJ)	.	.
.	8D\ 8F# 8d	(32ff#\LLL	.	.
.	.	32ee\	.	.
.	.	32dd\	.	.
.	.	32cc\JJJ)	.	.
=33	=33	=33	=33	=33
*	*^	*	*	*
*	*	*	*	*^	*
!	!	!	!	!LO:DY:b	!	!
2ryy	(8D/L	2GG^\	8g\ 8bn 8gg	sfz	.	2ryy
!	!	!	!	!LO:HP:a	!	!
!	!	!	!	!LO:DY:b	!	!
.	16E/L	.	(4bbn^\ 4fff	mf >	<	.
.	16G/JJ	.	.	.	.	.
.	16Bn/LL	.	.	.	.	.
.	16G/	.	.	.	.	.
.	16g/	.	8aa#X'\) 8ccc#X	]	.	.
.	16e/JJ)	.	.	.	[[	.
=34	=34	=34	=34	=34	=34	=34
2ryy	8r	2GG^\ 2D	8aan'\ 8cccn	.	>	2ryy
!	!	!	!	!LO:HP:a	!	!
.	(4d^/	.	(4ee^\ 4ccc	>	.	.
.	8D/)	.	16dd\LL 16bbn	.	.	.
.	.	.	16cc\JJ) 16aa	]]	]	.
*	*	*	*	*v	*v	*
=35	=35	=35	=35	=35	=35
2ryy	8r	2GG^\ 2D	8bn'\ 8gg	.	2ryy
!	!	!	!	!LO:HP:a	!
.	4D^/ 4G 4d	.	(4b^\ 4dd	>	.
.	8D'/ 8G 8d	.	8a#X'\) 8cc#X	]]	.
=36	=36	=36	=36	=36	=36
2ryy	8r	2GG^\ 2D	8an\ 8ccn	.	2ryy
!	!	!	!	!LO:HP:a	!
.	4D^/ 4F#X 4d	.	(4e^/ 4cc	>	.
.	8D'/ 8F# 8d	.	16d/LL 16bn	.	.
.	.	.	16c/JJ) 16a	]	.
*	*v	*v	*	*	*
!!LO:PB:g=original
=37	=37	=37	=37	=37
2ryy	8GG/ 8D	(8d/L	.	2ryy
.	(4D^\ 4G 4Bn	16e/L	.	.
.	.	16g/JJ	.	.
.	.	16bn\LL	.	.
.	.	16g\	.	.
.	8D'\) 8G 8d	16b\	.	.
.	.	16dd\JJ	.	.
=38	=38	=38	=38	=38
2ryy	8GG/ 8D	16cc#X\LL	.	2ryy
.	.	16a\	.	.
.	(4D^\ 4G 4en	16cc#\	.	.
.	.	16ee\JJ	.	.
.	.	16gg\LL	.	.
.	.	16ee\	.	.
.	8D'\) 8G 8c#X	16gg\	.	.
.	.	16bbn\JJ	.	.
=39	=39	=39	=39	=39
2ryy	8GG/ 8D	8ddd\L)	.	2ryy
.	(4D^\ 4G 4Bn	(16ee\L	.	.
.	.	16gg\JJ	.	.
.	.	16bbn\LL	.	.
.	.	16gg\	.	.
.	8D'\) 8G 8d	16bb\	.	.
.	.	16ddd\JJ	.	.
=40	=40	=40	=40	=40
*	*	*8va	*	*
2ryy	8GG/ 8D	16ccc#X\LL	.	2ryy
.	.	16aa\	.	.
.	(4D^\ 4G 4e	16ccc#\	.	.
.	.	16eee\JJ	.	.
.	.	16ggg\LL	.	.
.	.	16eee\	.	.
.	8D\) 8A 8c#X	16ggg\	.	.
.	.	16bbbn\JJ	.	.
=41	=41	=41	=41	=41
*	*^	*	*	*
!	!	!	!	!LO:DY:rj	!
2ryy	(8D/L	2GG\	8dddd\)	mf	2ryy
*	*	*	*X8va	*	*
.	16E/L	.	(4dd^\ 4bbn 4ddd	.	.
.	16G/JJ	.	.	.	.
.	16Bn/LL	.	.	.	.
.	16G/	.	.	.	.
.	16g/	.	8cc#X'\) 8aa#X 8ccc#X	.	.
.	16e/JJ)	.	.	.	.
*	*v	*v	*	*	*
!!LO:LB:g=original
=42	=42	=42	=42	=42
!	!	!LO:TUP:a	!	!
2ryy	8GG/ 8D	(24eee\LL	p	2ryy
.	.	24ddd\	.	.
.	.	24ccc\JJ)	.	.
!	!	!LO:TUP:a	!	!
.	4D\ 4F#X 4d	(24eee\LL	.	.
.	.	24ddd\	.	.
.	.	24ccc\JJ)	.	.
!	!	!LO:TUP:a	!	!
.	.	(24eee\LL	.	.
.	.	24ddd\	.	.
.	.	24ccc\JJ	.	.
!	!	!LO:TUP:a	!	!
.	8D\ 8F# 8d	24aa\LL	.	.
.	.	24ff#X\	.	.
.	.	24dd\JJ)	.	.
=43	=43	=43	=43	=43
2ryy	8GG/ 8D	8d/ 8bn 8dd	.	2ryy
.	(4D^\ 4G 4d	(4b^\ 4dd	.	.
.	8D'\) 8G 8d	8a#X'\) 8cc#X	.	.
=44	=44	=44	=44	=44
!	!	!LO:TUP:a	!	!
2ryy	8GG/ 8D	(24ee\LL	.	2ryy
.	.	24dd\	.	.
.	.	24ccn\JJ)	.	.
!	!	!LO:TUP:a	!	!
.	4D^\ 4F#X 4d	(24ee\LL	.	.
.	.	24dd\	.	.
.	.	24cc\JJ)	.	.
!	!	!LO:TUP:a	!	!
.	.	(24ee\LL	.	.
.	.	24dd\	.	.
.	.	24cc\JJ	.	.
!	!	!LO:TUP:b	!	!
.	8D\ 8F# 8d	24a/LL	.	.
.	.	24f#X/	.	.
.	.	24d/JJ)	.	.
=45	=45	=45	=45	=45
*	*^	*	*	*
!	!	!	!LO:TX:a:B:t=Poco più.	!LO:DY:b=2:rj	!
2ryy	8r	2CC\ 2GG	8r	sfz	2ryy
.	(4G^\ 4d	.	(4b-Z^\ 4dd	.	.
.	8G'\) 8A 8e	.	8a'\) 8cc#X	.	.
*	*v	*v	*	*	*
=46	=46	=46	=46	=46
2ryy	8C'\L 8G	(16bb-\LL	.	2ryy
.	.	16gg\	.	.
.	8G'\J 8d	16bb-\	.	.
.	.	16ddd\JJ	.	.
.	8C'\L 8G	16ccc#X\LL	.	.
.	.	16aa\	.	.
.	8A'\J 8e	16ccc#\	.	.
.	.	16eee\JJ	.	.
!!LO:LB:g=original
=47	=47	=47	=47	=47
*	*^	*	*	*
2ryy	8r	2CC\ 2GG	8ddd\)	.	2ryy
.	4G\ 4d	.	(4b-^\ 4dd	.	.
.	8G\ 8A 8e	.	8a'\) 8cc#X	.	.
*	*v	*v	*	*	*
=48	=48	=48	=48	=48
*	*	*^	*	*
2ryy	8CC/L 8GG	(16bb-/LL	8gg\L	.	2ryy
.	.	16ddd/	.	.	.
.	8C/J 8G	16bb-/	8dd\J	.	.
.	.	16gg/JJ	.	.	.
.	8CC/L 8GG	4aa/)	4a\ 4ee-X 4ff#X	.	.
.	8C/J 8G	.	.	.	.
*	*	*v	*v	*	*
=49	=49	=49	=49	=49
*	*^	*	*	*
2ryy	8r	2CC\ 2GG	8r	.	2ryy
.	4G\ 4d	.	(4b-^\ 4dd	.	.
.	8G\ 8A 8e	.	8a'\) 8cc#X	.	.
*	*v	*v	*	*	*
=50	=50	=50	=50	=50
2ryy	8C\L 8G	(16dd\LL 16bb-	.	2ryy
.	.	16gg\	.	.
.	8G\J 8d	16bb-\	.	.
.	.	16ddd\JJ	.	.
.	8C\L 8G	16ee\LL 16ccc#X	.	.
.	.	16aa\	.	.
.	8A\J 8e	16ccc#\	.	.
.	.	16eee\JJ	.	.
=51	=51	=51	=51	=51
*	*^	*	*	*
2ryy	8r	2CC\ 2GG	8ddd\)	.	2ryy
.	4G\ 4d	.	(4b-^\ 4dd	.	.
.	8G\ 8A 8e	.	8a'\) 8cc#X	.	.
*	*v	*v	*	*	*
=52	=52	=52	=52	=52
*	*	*^	*	*
2ryy	8C\L 8G	(16bb-/LL	4dd\	.	2ryy
.	.	16ddd/	.	.	.
.	8B-\J 8d	16bb-/	.	.	.
.	.	16gg/JJ	.	.	.
.	8C\L 8G	4a\) 4ee 4aa	4ryy	.	.
.	8B-\J 8c	.	.	.	.
*	*	*v	*v	*	*
!!LO:LB:g=original
=53||	=53||	=53||	=53||	=53||
*	*^	*	*	*
!	!	!	!LO:TX:a:B:t=Poco tranquillo.	!LO:HP:a	!
2ryy	8r	2FF\ 2C	(8.a\L 8.ff 8.aa	p <	2ryy
.	4A\ 4c 4f	.	.	.	.
.	.	.	16cc\Jk) 16aa 16ccc	[	.
.	.	.	4cc~\ 4aa 4ccc	.	.
.	8A\ 8c 8f	.	.	.	.
=54	=54	=54	=54	=54	=54
!	!	!	!	!LO:HP:a	!
2ryy	8r	2FF\ 2C	(8g\ 8ee 8gg	<	2ryy
!	!	!	!	!LO:HP:a	!
.	4G\ 4B- 4e	.	4b-\ 4gg 4bb-	[ >	.
.	8G\ 8B- 8e	.	8g\) 8ee 8gg	]	.
=55	=55	=55	=55	=55	=55
!	!	!	!	!LO:HP:a	!
2ryy	8r	2FF\ 2C	(8.b-\L 8.gg 8.bb-	<	2ryy
.	4B-\ 4e 4g	.	.	.	.
.	.	.	16dd\Jk) 16bb- 16ddd	.	.
.	.	.	4dd~\ 4bb- 4ddd	[	.
.	8B-\ 8e 8g	.	.	.	.
=56	=56	=56	=56	=56	=56
!	!	!	!	!LO:HP:a	!
2ryy	8r	2FF\ 2C	(8a\ 8ff 8aa	<	2ryy
!	!	!	!	!LO:HP:a	!
.	4A\ 4c 4f	.	4cc^>\ 4aa 4ccc	[ >	.
.	8A\ 8c 8f	.	8a\) 8ff 8aa	]	.
=57	=57	=57	=57	=57	=57
2ryy	8r	2FF\ 2C	(8.a\L 8.ff 8.aa	.	2ryy
.	4A\ 4c 4f	.	.	.	.
.	.	.	16cc\Jk) 16aa 16ccc	.	.
.	.	.	4cc\ 4aa 4ccc	.	.
.	8A\ 8c 8f	.	.	.	.
=58	=58	=58	=58	=58	=58
2ryy	8r	2FF\ 2C	(8g\ 8ee 8gg	.	2ryy
.	4G\ 4B- 4e	.	4b-\ 4gg 4bb-	.	.
.	8G\ 8B- 8e	.	8g\) 8ee 8gg	.	.
*	*v	*v	*	*	*
=59	=59	=59	=59	=59
!	!	!LO:TX:a:B:t=Poco animato.	!	!
2ryy	8FF\L 8C	(8.bb-^\L 8.ddd	.	2ryy
.	8G\J 8B- 8e	.	.	.
.	.	16ee'\Jk) 16ccc	.	.
.	8FF\L 8C	8gg'\L 8bb-	.	.
.	8G\J 8B- 8e	8b-'\J 8ee	.	.
!!LO:LB:g=original
=60	=60	=60	=60	=60
2ryy	8r	8b-'\ 8ee	.	2ryy
.	4A\ 4c 4f	(4a^\ 4ff	.	.
.	8A\ 8c 8f	8a'\) 8ff	.	.
=61	=61	=61	=61	=61
*	*	*^	*	*
!	!	!LO:TX:a:i:t=a tempo	!	!	!
2ryy	8r	(2ff/	(>8.f\L 8.a	.	2ryy
.	4A\ 4c 4f	.	.	.	.
.	.	.	16a\Jk) 16cc	.	.
.	.	.	4a~>\ 4cc	.	.
.	8A\ 8c 8f	.	.	.	.
=62	=62	=62	=62	=62	=62
2ryy	8r	2ee/)	8e\ 8g	.	2ryy
.	4G\ 4B- 4e	.	(>4g\ 4b-	.	.
.	8G\ 8B- 8e	.	8e\) 8g	.	.
=63	=63	=63	=63	=63	=63
2ryy	8r	(2gg/	(>8.g\L 8.b-	.	2ryy
.	4G\ 4B- 4e	.	.	.	.
.	.	.	16b-\Jk) 16dd	.	.
.	.	.	4b-\ 4dd	.	.
.	8G\ 8B- 8e	.	.	.	.
=64	=64	=64	=64	=64	=64
2ryy	8r	2ff/)	8f\ 8a	.	2ryy
.	4A\ 4c 4f	.	(>4a\ 4cc	.	.
.	8A\ 8c 8f	.	8f\) 8a	.	.
*	*	*v	*v	*	*
=65	=65	=65	=65	=65
*	*	*	*^	*
!	!	!	!LO:DY:b:rj	!LO:DY:t=(mf)	!
2ryy	8D\L	(8.a\L 8.ff	f	mf	2ryy
.	8F\J 8A 8d	.	.	.	.
.	.	16f\Jk) 16a	.	.	.
.	8D\L	4f/ 4a	.	.	.
.	8F\J 8A 8d	.	.	.	.
*	*	*	*v	*v	*
=66	=66	=66	=66	=66
2ryy	8BBn\L	(16f^/LL 16a	.	2ryy
.	.	16f'/JJ) 16g	.	.
.	8F\J 8G 8d	(4f^/ 4g	.	.
.	8GG\L	.	.	.
.	8F\J 8G 8d	8f'/) 8bn	.	.
!!LO:LB:g=original
=67	=67	=67	=67	=67
2ryy	8C'\L	(8.b-X/L 8.dd	p	2ryy
.	8G'\J 8c	.	.	.
.	.	16e'/Jk) 16cc	.	.
.	8C'\L	8g'/L 8b-	.	.
.	8G'\J 8c	8B-'/J 8e	.	.
=68	=68	=68	=68	=68
2ryy	2FF/ 2C	(8B-^/ 8e	.	2ryy
.	.	4A/) 4f	.	.
.	.	8A/ 8f	.	.
=69	=69	=69	=69	=69
*	*^	*	*	*
!	!	!	!LO:TX:b:i:t=(legg.)	!	!
!	!	!	!LO:TX:a:B:t=Più mosso.	!	!
2ryy	8c/	2F\ 2c	(16cc\LL	.	2ryy
.	.	.	16ee\	.	.
.	(4b-/	.	16gg\	.	.
.	.	.	16bb-\JJ	.	.
.	.	.	4ddd\)	.	.
.	8g/)	.	.	.	.
*	*v	*v	*	*	*
=70	=70	=70	=70	=70
.	(8qF/	.	.	.
!	!	!LO:TUP:a	!	!
2ryy	8a'>/)	(24ccc\LL	.	2ryy
.	.	24ddd\	.	.
.	.	24ccc\J	.	.
.	(>4f^>/	16aa\L	.	.
.	.	16ff\JJ)	.	.
!	!	!LO:TUP:a	!	!
.	.	(24ccc\LL	.	.
.	.	24ddd\	.	.
.	.	24ccc\J	.	.
.	8d/)	16aa\L	.	.
.	.	16ff\JJ)	.	.
*	*clefG2	*	*	*
=71	=71	=71	=71	=71
*	*^	*	*	*
2ryy	(8.c/L	2F\	(16cc\LL	.	2ryy
.	.	.	16ee\	.	.
.	.	.	16gg\	.	.
.	16e/Jk)	.	16bb-\JJ	.	.
.	8g'/L	.	4eee'\)	.	.
.	8b-'/J	.	.	.	.
*	*v	*v	*	*	*
!!LO:PB:g=original
=72	=72	=72	=72	=72
.	(>8qc/	.	.	.
!	!	!LO:TUP:a	!	!
2ryy	8dd/)	(24fff\LL	.	2ryy
.	.	24ggg\	.	.
.	.	24fff\J	.	.
.	(>4cc^>/	16ccc\L	.	.
.	.	16aa\JJ)	.	.
!	!	!LO:TUP:a	!	!
.	.	(24fff\LL	.	.
.	.	24ggg\	.	.
.	.	24fff\J	.	.
.	8a'>/)	16ccc\L	.	.
.	.	16aa\JJ)	.	.
=73	=73	=73	=73	=73
*	*^	*	*	*
2ryy	8c/	2F\	(16cc\LL	.	2ryy
.	.	.	16ee\	.	.
.	(4b-^/	.	16gg\	.	.
.	.	.	16bb-\JJ	.	.
.	.	.	4ddd\)	.	.
.	8g'/)	.	.	.	.
*	*v	*v	*	*	*
=74	=74	=74	=74	=74
.	8qF/	.	.	.
!	!	!LO:TUP:a	!	!
2ryy	8a'>/	(24ccc\LL	.	2ryy
.	.	24ddd\	.	.
.	.	24ccc\J	.	.
.	(>4f^>/	16aa\L	.	.
.	.	16ff\JJ)	.	.
!	!	!LO:TUP:a	!	!
.	.	(24ccc\LL	.	.
.	.	24ddd\	.	.
.	.	24ccc\J	.	.
.	8d/)	16aa\L	.	.
.	.	16ff\JJ)	.	.
=75	=75	=75	=75	=75
*	*^	*	*	*
2ryy	(8.c^/L	2F\	(16cc\LL	.	2ryy
.	.	.	16ee\	.	.
.	.	.	16gg\	.	.
.	16dd'/Jk)	.	16bb-\JJ	.	.
.	8cc'/L	.	4eee\)	.	.
.	8g'/J	.	.	.	.
*	*v	*v	*	*	*
=76	=76	=76	=76	=76
!	!	!LO:TUP:a	!	!
2ryy	8a/	(24fff\LL	.	2ryy
.	.	24ggg\	.	.
.	.	24fff\J	.	.
.	4.f^/	16ccc\L	.	.
.	.	16aa\JJ)	.	.
!	!	!LO:TUP:a	!	!
.	.	(24fff\LL	.	.
.	.	24ggg\	.	.
.	.	24fff\J	.	.
.	.	16ccc\L	.	.
.	.	16aa\JJ)	.	.
*	*clefF4	*	*	*
!!LO:LB:g=original
=77||	=77||	=77||	=77||	=77||
*k[b-e-a-d-g-]	*k[b-e-a-d-g-]	*k[b-e-a-d-g-]	*	*k[b-e-a-d-g-]
*	*ped	*	*	*
!	!	!LO:TX:a:i:t=con grazia	!	!
2ryy	8DD-/ 8AA-	(8.f\L 8.dd- 8.ff	p	2ryy
.	(4F\ 4A- 4d- 4f	.	.	.
.	.	16a-\Jk) 16ff 16aa-	.	.
.	.	4a-~\ 4ff 4aa-	.	.
.	8F\) 8A- 8d- 8f	.	.	.
=78	=78	=78	=78	=78
*	*ped	*	*	*
2ryy	8DD-/ 8AA-	(8e-/ 8cc 8ee-	.	2ryy
.	(4G-\ 4A- 4c 4e-	4g-^\ 4ee- 4gg-	.	.
.	8G-\) 8A- 8c 8e-	8e-/) 8cc 8ee-	.	.
=79	=79	=79	=79	=79
*	*ped	*	*	*
2ryy	8DD-/ 8AA-	(8.g-\L 8.ee- 8.gg-	.	2ryy
.	(4G-\ 4A- 4c 4e-	.	.	.
.	.	16b-\Jk) 16gg- 16bb-	.	.
.	.	4b-~\ 4gg- 4bb-	.	.
.	8G-\) 8A- 8c 8e-	.	.	.
=80	=80	=80	=80	=80
2ryy	8DD-/ 8AA-	8f\ 8dd- 8ff	.	2ryy
.	4F\ 4A- 4d- 4f	(4a-~\ 4ff 4aa-	.	.
.	8F\ 8A- 8d- 8f	8f\) 8dd- 8ff	.	.
=81	=81	=81	=81	=81
2ryy	8DD-/ 8AA-	(8.f\L 8.dd- 8.ff	.	2ryy
.	4F\ 4A- 4d- 4f	.	.	.
.	.	16a-\Jk) 16ff 16aa-	.	.
.	.	4a-\ 4ff 4aa-	.	.
.	8F\ 8A- 8d- 8f	.	.	.
=82	=82	=82	=82	=82
2ryy	8DD-/ 8AA-	(8e-/ 8cc 8ee-	.	2ryy
.	4G-\ 4A- 4c 4e-	4g-\ 4ee- 4gg-	.	.
.	8G-\ 8A- 8c 8e-	8e-/) 8cc 8ee-	.	.
=83	=83	=83	=83	=83
2ryy	8AAA-\L 8AA-	8r	.	2ryy
.	8G-\J 8A- 8c 8e-	8gg-'\L 8bb-	.	.
.	8AAA-\L 8AA-	8cc'\ 8aa-	.	.
.	8G-\J 8A- 8c 8e-	8gg-'\J 8ccc	.	.
!!LO:LB:g=original
=84	=84	=84	=84	=84
2ryy	8DD-/ 8D-	8gg-'\ 8eee-	.	2ryy
.	4F\ 4A- 4d- 4f	4ff^\ 4ddd-	.	.
.	8F\ 8A- 8d- 8f	8ff~\ 8ddd-	.	.
=85	=85	=85	=85	=85
2ryy	8DD-/ 8AA-	(8.f\L 8.dd- 8.ff	mf	2ryy
.	4F\ 4A- 4d- 4f	.	.	.
.	.	16a-\Jk) 16ff 16aa-	.	.
.	.	4a-\ 4ff 4aa-	.	.
.	8F\ 8A- 8d- 8f	.	.	.
=86	=86	=86	=86	=86
2ryy	8DD-/ 8AA-	(8e-/ 8cc 8ee-	.	2ryy
.	4G-\ 4A- 4c 4e-	4g-\ 4ee- 4gg-	.	.
.	8G-\ 8A- 8c 8e-	8e-/) 8cc 8ee-	.	.
=87	=87	=87	=87	=87
2ryy	8DD-/ 8AA-	(8.g-\L 8.ee- 8.gg-	.	2ryy
.	4G-\ 4A- 4c 4e-	.	.	.
.	.	16b-\Jk) 16gg- 16bb-	.	.
.	.	4b-\ 4gg- 4bb-	.	.
.	8G-\ 8A- 8c 8e-	.	.	.
=88	=88	=88	=88	=88
2ryy	8DD-/ 8AA-	(8f\ 8dd- 8ff	.	2ryy
.	4F\ 4A- 4d- 4f	4a-\ 4ff 4aa-	.	.
.	8F\ 8A- 8d- 8f	8f\) 8dd- 8ff	.	.
=89	=89	=89	=89	=89
2ryy	8BBB-/ 8BB-	(8.dd-\L 8.ff 8.ddd-	f	2ryy
.	4F\ 4B- 4d-	.	.	.
.	.	16f\Jk) 16dd- 16ff	.	.
.	.	4f\ 4dd- 4ff	.	.
.	8F\ 8B- 8d-	.	.	.
=90	=90	=90	=90	=90
2ryy	8EE-/ 8E-	(8.dd-\L 8.ff 8.ddd-	.	2ryy
.	4B-\ 4d- 4g-	.	.	.
.	.	16b-\Jk) 16gg- 16bb-	.	.
.	.	4b-\ 4gg- 4bb-	.	.
.	8B-\ 8d- 8g-	.	.	.
!!LO:LB:g=original
=91	=91	=91	=91	=91
2ryy	8AA-\L	8r	.	2ryy
.	8G-\J 8A- 8c	8cc'\L 8gg- 8bb-	.	.
.	8AA-\L	8cc'\ 8gg- 8aa-	.	.
.	8G-\J 8A- 8c	8g-'\J 8cc	.	.
=92	=92	=92	=92	=92
2ryy	8DD-/L 8D-	8g-\L 8a- 8ee-	.	2ryy
.	8r	8f\J 8a- 8dd-	.	.
.	8AAAn/J 8AAn	8r	.	.
.	8r	8en/ 8gn 8cc#X	.	.
=93||	=93||	=93||	=93||	=93||
*k[f#c#g#]	*k[f#c#g#]	*k[f#c#g#]	*	*k[f#c#g#]
2ryy	8E\	(<16e/LL	mf	2ryy
.	.	16g#/	.	.
!	!	!	!LO:HP:b=2	!
.	(4d^\	16b/	>	.
.	.	16dd/JJ	.	.
.	.	4ff#\)	.	.
.	8B'\)	.	]	.
=94	=94	=94	=94	=94
!	!	!LO:TUP:a	!	!
2ryy	8c#\	20ee\LL	.	2ryy
.	.	20ff#\	.	.
.	.	20ee\	.	.
!	!	!	!LO:HP:b=2	!
.	(4A\	.	>	.
.	.	20cc#\	.	.
.	.	20a\JJ	.	.
!	!	!LO:TUP:a	!	!
.	.	20ee\LL	.	.
.	.	20ff#\	.	.
.	.	20ee\	.	.
.	8F#\)	.	]	.
.	.	20cc#\	.	.
.	.	20a\JJ	.	.
=95	=95	=95	=95	=95
!	!	!	!LO:HP:b=2	!
2ryy	(8.E\L	(16g#\LL	<	2ryy
.	.	16b\	.	.
.	.	16dd\	.	.
.	16G#'\Jk)	16ee\JJ	.	.
.	8B'\L	4gg#\)	[	.
.	8d'\J	.	.	.
!!LO:LB:g=original
=96	=96	=96	=96	=96
!	!	!LO:TUP:a	!LO:HP:b=2	!
2ryy	8f#'\	(24aa\LL	>	2ryy
.	.	24bb\	.	.
.	.	24aa\J	.	.
.	(4e^\	16ee\L	.	.
.	.	16cc#\JJ)	.	.
!	!	!LO:TUP:a	!	!
.	.	(24aa\LL	.	.
.	.	24bb\	.	.
.	.	24aa\J	.	.
.	8c#'\)	16ee\L	]	.
.	.	16cc#\JJ)	.	.
=97	=97	=97	=97	=97
2ryy	8E\	(<16e/LL	.	2ryy
.	.	16g#/	.	.
.	(4d^\	16b/	.	.
.	.	16dd/JJ	.	.
.	.	4ff#\)	.	.
.	8B\)	.	.	.
=98	=98	=98	=98	=98
!	!	!LO:TUP:a	!	!
2ryy	8c#'\	(24ee\LL	.	2ryy
.	.	24ff#\	.	.
.	.	24ee\J	.	.
.	(4A^\	16cc#\L	.	.
.	.	16a\JJ)	.	.
!	!	!LO:TUP:a	!	!
.	.	(24ee\LL	.	.
.	.	24ff#\	.	.
.	.	24ee\J	.	.
.	8F#\)	16cc#\L	.	.
.	.	16a\JJ)	.	.
=99	=99	=99	=99	=99
2ryy	(8.E\L	(16e/LL	.	2ryy
.	.	16f#/	.	.
.	.	16g#/	.	.
.	16f#'\Jk)	16a/JJ	.	.
!	!	!LO:TUP:a	!	!
.	8e'\L	24b\LL	.	.
.	.	24cc#\	.	.
.	.	24dd\	.	.
.	8B'\J	24ee\	.	.
.	.	24ff#\	.	.
.	.	24gg#\JJ)	.	.
!!LO:LB:g=original
=100	=100	=100	=100	=100
!	!	!LO:TUP:a	!	!
2ryy	8c#\	(24aa\LL	.	2ryy
.	.	24bb\	.	.
.	.	24aa\J	.	.
.	4.A^\	16ee\L	.	.
.	.	16cc#\JJ)	.	.
!	!	!LO:TUP:a	!	!
.	.	(24aa\LL	.	.
.	.	24bb\	.	.
.	.	24aa\J	.	.
.	.	16ee\L	.	.
.	.	16cc#\JJ)	.	.
=101	=101	=101	=101	=101
*	*	*^	*	*
!	!	!LO:TX:a:i:t=agitato poco a poco	!	!	!
2ryy	(16FFn\LL 16Fn	2ffn/	(>8b^>\ 8bb	f	2ryy
.	16A\	.	.	.	.
.	16cn\	.	4a\) 4aa	.	.
.	16fn\JJ)	.	.	.	.
.	(16A\LL	.	.	.	.
.	16c\	.	.	.	.
.	16f\	.	8a'>\ 8aa	.	.
.	16a\JJ)	.	.	.	.
=102	=102	=102	=102	=102	=102
2ryy	(16E-X\LL	2ffn/	(>8b^>\ 8bb	.	2ryy
.	16A\	.	.	.	.
.	16cn\	.	4a\) 4aa	.	.
.	16fn\JJ)	.	.	.	.
.	(16A\LL	.	.	.	.
.	16c\	.	.	.	.
.	16f\	.	8a'>\ 8aa	.	.
.	16a\JJ)	.	.	.	.
=103	=103	=103	=103	=103	=103
2ryy	(16D\LL	2ff#X/	(>8b^>\ 8bb	.	2ryy
.	16A\	.	.	.	.
.	16cn\	.	4a'>\) 4aa	.	.
.	16f#\JJ)	.	.	.	.
.	(16A\LL	.	.	.	.
.	16c\	.	.	.	.
.	16f#X\	.	8a'>\ 8aa	.	.
.	16a\JJ)	.	.	.	.
*	*	*v	*v	*	*
!!LO:PB:g=original
=104	=104	=104	=104	=104
!	!	!LO:TX:b:i:t=marcato	!	!
!	!	!LO:TUP:a	!	!
2ryy	(8.DD/L 8.D	(24aa\LL	.	2ryy
.	.	24bb\	.	.
.	.	24aa\J	.	.
.	.	16ff#\L	.	.
.	16AAA/Jk) 16AA	16ccn\JJ)	.	.
!	!	!LO:TUP:a	!	!
.	4AAA/ 4AA	(24ff#\LL	.	.
.	.	24gg#\	.	.
.	.	24ff#\J	.	.
.	.	16cc\L	.	.
.	.	16a\JJ)	.	.
=105	=105	=105	=105	=105
*	*	*^	*	*
2ryy	(8AA-X\L 8A-X	2aa-X/	8dd\ 8ddd	.	2ryy
.	16cn\L	.	4ccn^>\ [>4cccn	.	.
.	16e-X\JJ	.	.	.	.
*	*clefG2	*	*	*	*
.	16cn/LL	.	.	.	.
.	16e-X/	.	.	.	.
.	16a-X/	.	8cc'>\ 8ccc]	.	.
.	16ccn/JJ)	.	.	.	.
*	*clefF4	*	*	*	*
=106	=106	=106	=106	=106	=106
2ryy	(8GG-X\L 8G-X	2aa-X/	8dd\ 8ddd	.	2ryy
.	16cn\L	.	4ccn^>\ [>4cccn	.	.
.	16e-X\JJ	.	.	.	.
*	*clefG2	*	*	*	*
.	16cn/LL	.	.	.	.
.	16e-X/	.	.	.	.
.	16a-X/	.	8cc'>\ 8ccc]	.	.
.	16ccn/JJ)	.	.	.	.
=107	=107	=107	=107	=107	=107
2ryy	(16Fn^/LL	2aan/	8dd\ 8ddd	.	2ryy
.	16cn/	.	.	.	.
.	16e-X/	.	4ccn^>\ [>4cccn	.	.
.	16a/JJ	.	.	.	.
.	16c/LL	.	.	.	.
.	16e-/	.	.	.	.
.	16a/	.	8cc'>\ 8ccc]	.	.
.	16ccn/JJ)	.	.	.	.
*	*	*v	*v	*	*
*	*clefF4	*	*	*
!!LO:LB:g=original
=108	=108	=108	=108	=108
!	!	!LO:TUP:a	!	!
2ryy	8.FFn^/L 8.Fn	(24cccn\LL	.	2ryy
.	.	24ddd\	.	.
.	.	24ccc\J	.	.
.	.	16aa\L	.	.
.	16CCn^/Jk 16Cn	16ee-X\JJ)	.	.
!	!	!LO:TUP:a	!	!
.	4CC^/ 4C	(24aa\LL	.	.
.	.	24bb\	.	.
.	.	24aa\J	.	.
.	.	16ee-\L	.	.
.	.	16ccn\JJ)	.	.
=109	=109	=109	=109	=109
*	*	*^	*	*
2ryy	(16BB\LL	2bb/	(>8ee\ 8eee	.	2ryy
.	16F#X\	.	.	.	.
.	16B\	.	4dd#X^>\) 4ddd#X	.	.
.	16d#X\JJ	.	.	.	.
.	16F#\LL	.	.	.	.
.	16B\	.	.	.	.
.	16d#\	.	8dd#'>\ 8ddd#	.	.
.	16f#\JJ)	.	.	.	.
=110	=110	=110	=110	=110	=110
2ryy	(16AA\LL	2bb/	(>8ee\ 8eee	.	2ryy
.	16D#X\	.	.	.	.
.	16F#\	.	4dd#X^>\) 4ddd#X	.	.
.	16B\JJ	.	.	.	.
.	16F#\LL	.	.	.	.
.	16B\	.	.	.	.
.	16d#X\	.	8dd#'>\ 8ddd#	.	.
.	16f#\JJ)	.	.	.	.
=111	=111	=111	=111	=111	=111
2ryy	(16GG#X\LL	2bb#X/	8(>ee#X\ 8eee#X	.	2ryy
.	16D#X\	.	.	.	.
.	16F#\	.	4dd#X^>\) 4ddd#X	.	.
.	16B#X\JJ	.	.	.	.
.	16D#\LL	.	.	.	.
.	16F#\	.	.	.	.
.	16B#\	.	8dd#'>\ 8ddd#	.	.
.	16d#X\JJ)	.	.	.	.
*	*	*v	*v	*	*
!!LO:LB:g=original
=112	=112	=112	=112	=112
!	!	!LO:TUP:a	!	!
2ryy	(8.GG#^/L 8.G#	(24ddd#X\LL	.	2ryy
.	.	24eee#X\	.	.
.	.	24ddd#\J	.	.
.	.	16bb#X\L	.	.
.	16DD#X/Jk) 16D#X	16ff#\JJ)	.	.
!	!	!LO:TUP:a	!	!
.	4DD#/ 4D#	(24ddd#\LL	.	.
.	.	24eee#\	.	.
.	.	24ddd#\J	.	.
.	.	16bb#\L	.	.
.	.	16ff#\JJ)	.	.
=113||	=113||	=113||	=113||	=113||
*k[]	*k[]	*k[]	*	*k[]
!	!	!	!LO:DY:rj	!
2ryy	8GGG/ 8GG	(8.g\L 8.cc 8.ee	ff	2ryy
.	4E\ 4G 4c 4e	.	.	.
.	.	16g\Jk) 16ee 16gg	.	.
.	.	4g\ 4ee 4gg	.	.
.	8G\ 8B-X 8c#X 8e	.	.	.
=114	=114	=114	=114	=114
2ryy	8GGG/ 8GG	8d/ 8b 8dd	.	(8g\L
.	4F\ 4G 4Bn 4d	(4f^\ 4dd 4ff	.	16b\L
.	.	.	.	16dd\JJ
.	.	.	.	16ff\LL
.	.	.	.	16dd\
.	8F\ 8G 8B 8d	8d/) 8b 8dd	.	16ff\
.	.	.	.	16aa\JJ)
=115	=115	=115	=115	=115
2ryy	8GGG/ 8GG	(8.f\L 8.dd 8.ff	.	8aa\
.	4F\ 4G 4B 4d	.	.	(4gg\
.	.	16a\Jk) 16ff 16aa	.	.
.	.	4a\ 4ff 4aa	.	.
.	8F\ 8G 8B 8d#X	.	.	8ff\)
=116	=116	=116	=116	=116
2ryy	8GGG/ 8GG	8e/ 8cc 8ee	.	(16ee\LL
.	.	.	.	16g\
.	4E\ 4G 4c 4e	(4g\ 4ee 4gg	.	16a\
.	.	.	.	16cc\JJ
.	.	.	.	16ee\LL
.	.	.	.	16cc\
.	8E\ 8G 8c 8e	8e/) 8cc 8ee	.	16ee\
.	.	.	.	16gg\JJ)
!!LO:LB:g=original
=117	=117	=117	=117	=117
2ryy	8AAA/ 8AA	(8.g\L 8.cc#X 8.ee	.	8bb-X\
.	4G\ 4A 4c#X 4e	.	.	4aa\
.	.	16g\Jk) 16ee 16gg	.	.
.	.	4g~\ 4ee 4gg	.	.
.	8G\ 8A 8c# 8e	.	.	8ee\
=118	=118	=118	=118	=118
2ryy	8DD/ 8D	8g~\ 8cc#X 8ee	.	8gg'\
.	4F\ 4A 4d 4f	(4a^>\ 4dd 4ff	.	(4ff^\
.	8F\ 8A 8d 8f	8f/) 8a 8dd	.	8aa\)
=119	=119	=119	=119	=119
2ryy	8GG\L	(8.ff\L 8.aa	.	(8.aa\L
.	8F\J 8G 8B	.	.	.
.	.	16ee'\Jk) 16gg	.	16gg'\Jk)
.	8GG\L	8dd'\L 8ff	.	8ff'\L
.	8F\J 8G 8B	8f'\J 8b	.	8b'\J
=120	=120	=120	=120	=120
*	*	*^	*	*
!	!	!LO:TX:a:B:t=Vivace.	!	!LO:DY:rj	!
2ryy	8AA-X\L	4aa-X/	(>8dd^>\L 8ddd	mf >	2ryy
.	8E-X\J 8A-X 8c	.	8cc'>\J) 8ccc	]	.
!	!	!LO:TX:a:i:t=poco a poco accel e cresc.	!	!	!
.	8AAn\L	8re	4ryy	.	.
.	8E-\J 8G-X 8c	8ccM\	.	p	.
*	*	*v	*v	*	*
=121	=121	=121	=121	=121
2ryy	8BB-X\L	(8cc\L	.	2ryy
.	8F\J 8A-X 8d	8b-X\J)	.	.
.	8BBn\L	8r	.	.
.	8F\J 8A- 8d	8dd\	.	.
=122	=122	=122	=122	=122
2ryy	8C\L	(8ff\L	.	2ryy
.	8E-X\J 8A-X 8e-X	8ee-XM\J)	.	.
.	8D-X\L	8r	.	.
.	8G\J 8B-X 8e-	8ee-M\	.	.
!!LO:LB:g=original
=123	=123	=123	=123	=123
2ryy	8Dn\L	8r	.	2ryy
.	8An\J 8c 8f#X	8ee-X'\L	.	.
.	8D\L	8dd'\	.	.
.	8A\J 8c 8f#	8ff#X'\J	.	.
=124	=124	=124	=124	=124
2ryy	8E-X\L	(8aa^\L	.	2ryy
.	8B-X\J 8d-X 8g	8gg\J)	.	.
.	8En\L	8r	.	.
.	8B-\J 8d- 8g	8gg\	.	.
=125	=125	=125	=125	=125
2ryy	8F\L	8r	.	2ryy
.	8c\J 8e-X 8a	8gg'\L	.	.
.	8F\L	8ff'\	.	.
.	8c\J 8e- 8a	8aa'\J	.	.
=126	=126	=126	=126	=126
*	*	*^	*	*
2ryy	8G-X\L	4gg/	(>8cc^>\L 8ccc	.	2ryy
.	8B-X\J 8d-X 8g-X	.	8b-X'>\J) 8bb-X	.	.
.	8G-\L	8r	4ryy	.	.
.	8B-\J 8d- 8g-	8b-'\ 8bb-	.	.	.
=127	=127	=127	=127	=127	=127
2ryy	8F\L	4gg/	8cc'>\L 8ccc	<	2ryy
.	8Bn\J 8dn 8gn	.	8bn'>\ 8bbn	.	.
.	8E\L	4ryy	8dd'\ 8ddd	.	.
.	8G\J 8c 8g	.	8cc'\J 8ccc	.	.
*	*	*v	*v	*	*
=128	=128	=128	=128	=128
2ryy	8E-X\L	8dd'\L 8ddd	.	2ryy
.	8A\J 8c#X 8g	8cc#X'\ 8ccc#X	.	.
.	8D\L	8ee'\ 8eee	.	.
.	8A\J 8d 8f	8dd'\J 8ddd	.	.
=129	=129	=129	=129	=129
2ryy	8D-X\L	8ff'\L 8fff	.	2ryy
.	8G\J 8B-X 8e-X	8ee-X'\ 8eee-X	.	.
.	8C\L	8ff'\ 8fff	.	.
.	8G\J 8B- 8en	8een'\J 8eeen	.	.
!!LO:PB:g=original
=130	=130	=130	=130	=130
*	*	*8va	*	*
!	!	!	!LO:HP:a:t=molto crescendo	!
2r	8BB\L	8ff#X'\L 8fff#X	<	2ryy
.	8G\J 8e	8ee'\ 8eee	.	.
.	8BB-X\L	8aa'\ 8aaa	.	.
.	8G#X\J 8d 8e	8gg#X'\J 8ggg#X	.	.
=131	=131	=131	=131	=131
2r	8AA\L	8bb\L 8bbb	.	2ryy
.	8E\J 8c#X	8aa\J 8aaa	.	.
*	*	*X8va	*	*
.	8AA-X\L	8cc\L 8ccc	.	.
.	8F\J 8B-X 8d	8b-X\J 8bb-X	.	.
=132	=132	=132	=132	=132
2GGG/ 2GG	8r	8cc\L 8ccc	.	2ryy
.	(4F\ 4B 4d 4f	8bn\ 8bbn	.	.
.	.	8dd\ 8ddd	.	.
.	8E\) 8B-X 8c#X 8e	8cc#X\J 8ccc#X	.	.
=133	=133	=133	=133	=133
2GGG/ 2GG	8r	8ee\L 8eee	.	2ryy
.	4F\ 4Bn 4d 4f	8dd\ 8ddd	.	.
.	.	8ff\ 8fff	.	.
.	8G\ 8c#X 8e 8g	8ee\J 8eee	.	.
*	*clefG2	*	*	*
=134	=134	=134	=134	=134
*	*	*8va	*	*
2GGG/ 2GG	8r	8gg\L 8ggg	.	2ryy
.	4A-X/ 4d 4f 4a-X	8ff\ 8fff	.	.
.	.	8aa-X\ 8aaa-X	.	.
.	8B-X/ 8e 8g 8b-X	8gg\J 8ggg	.	.
=135	=135	=135	=135	=135
*	*^	*	*	*
!	!	!	!LO:TX:a:i:t=poco rit._:ext=ud	!	!
[2GGG/ [2GG	8r	8ryy	8aan\L 8aaan	.	2ryy
.	4Bn^/ 4bn	4.f\ 4.g	8gg\ 8ggg	.	.
.	.	.	8aa\ 8aaa	.	.
.	[<8c^/ [8cc	.	8gg\J 8ggg	.	.
=136	=136	=136	=136	=136	=136
2GGG/] 2GG]	8c/] 8cc]	8ryy	8aa\L 8aaa	.	2ryy
.	4c#X^/ 4cc#X	4.f\ 4.g	8gg\ 8ggg	.	.
.	.	.	8aa\ 8aaa	.	.
.	8d^/ 8dd	.	8gg\J 8ggg	.	.
*	*v	*v	*	*	*
*	*	*X8va	*	*
*	*clefF4	*	*	*
!!LO:LB:g=original
=137||	=137||	=137||	=137||	=137||
*k[b-]	*k[b-]	*k[b-]	*	*k[b-]
*	*^	*	*	*
!	!	!	!	!LO:DY:rj	!
2ryy	8C/	[2CC\ [2C	(16ccn\LL	ff	2ryy
!	!	!	!LO:TX:b:t=Tutti	!	!
.	.	.	16ee\	.	.
.	(4B-^/	.	16gg\	.	.
.	.	.	16bb-\JJ	.	.
.	.	.	4ddd\)	.	.
.	8G/)	.	.	.	.
=138	=138	=138	=138	=138	=138
!	!	!	!LO:TUP:a	!	!
2ryy	8A/	2CC\] 2C]	(24ccc\LL	.	2ryy
.	.	.	24ddd\	.	.
.	.	.	24ccc\J	.	.
.	(4F^/	.	16aa\L	.	.
.	.	.	16ff\JJ)	.	.
!	!	!	!LO:TUP:a	!	!
.	.	.	(24ccc\LL	.	.
.	.	.	24ddd\	.	.
.	.	.	24ccc\J	.	.
.	8D/)	.	16aa\L	.	.
.	.	.	16ff\JJ)	.	.
=139	=139	=139	=139	=139	=139
2ryy	(8.C/L	[2CC\ [2C	(16ee\LL	.	2ryy
.	.	.	16gg\	.	.
.	.	.	16bb-\	.	.
.	16E'/K)	.	16ccc\JJ	.	.
.	8G'/	.	4eee\)	.	.
.	8B-'/J	.	.	.	.
=140	=140	=140	=140	=140	=140
!	!	!	!LO:TUP:a	!	!
2ryy	8d'/	2CC\] 2C]	(24fff\LL	.	2ryy
.	.	.	24ggg\	.	.
.	.	.	24fff\J	.	.
.	(4c^/	.	16ccc\L	.	.
.	.	.	16aa\JJ)	.	.
!	!	!	!LO:TUP:a	!	!
.	.	.	(24ccc\LL	.	.
.	.	.	24ddd\	.	.
.	.	.	24ccc\J	.	.
.	8A/)	.	16aa\L	.	.
.	.	.	16ff\JJ)	.	.
!!LO:LB:g=original
=141	=141	=141	=141	=141	=141
2ryy	8C'/	[2CC\ [2C	(16cc\LL	.	2ryy
.	.	.	16ee\	.	.
.	(4B-^/	.	16gg\	.	.
.	.	.	16bb-\JJ	>	.
.	.	.	4ddd\)	]]	.
.	8G/)	.	.	.	.
=142	=142	=142	=142	=142	=142
!	!	!	!LO:TUP:a	!	!
2ryy	8A'/	2CC\] 2C]	(24ccc\LL	.	2ryy
.	.	.	24ddd\	.	.
.	.	.	24ccc\J	.	.
.	(4F/	.	16aa\L	.	.
.	.	.	16ff\JJ)	>	.
!	!	!	!LO:TUP:a	!	!
.	.	.	(24ccc\LL	.	.
.	.	.	24ddd\	.	.
.	.	.	24ccc\J	.	.
.	8D/)	.	16aa\L	]	.
.	.	.	16ff\JJ)	.	.
=143	=143	=143	=143	=143	=143
2ryy	(8.C/L	[2CC\ [2C	(16ee\LL	.	2ryy
.	.	.	16gg\	.	.
.	.	.	16bb-\	.	.
.	16d'/Jk)	.	16ccc\JJ	.	.
.	8c'/L	.	4eee\)	.	.
.	8G'/J	.	.	.	.
=144	=144	=144	=144	=144	=144
!	!	!	!LO:TUP:a	!	!
2ryy	8A'/	2CC\] 2C]	(24fff\LL	.	2ryy
.	.	.	24ggg\	.	.
.	.	.	24fff\J	.	.
.	4.F^/	.	16ccc\L	.	.
.	.	.	16aa\JJ)	.	.
!	!	!	!LO:TUP:a	!	!
.	.	.	(24ccc\LL	.	.
.	.	.	24ddd\	.	.
.	.	.	24ccc\J	.	.
.	.	.	16aa\L	.	.
.	.	.	16ff\JJ)	.	.
*	*v	*v	*	*	*
!!LO:LB:g=original
=145	=145	=145	=145	=145
!	!	!	!LO:DY:rj	!
2ryy	8FF/ 8F	(8.cc\L 8.aa	mf <	2ryy
.	4A~\ 4e-X [4f	.	.	.
.	.	16ee-X\Jk) 16ccc	[	.
.	.	4ee-\ 4ccc	.	.
.	8A~\ 8e- 8f]	.	.	.
=146	=146	=146	=146	=146
*	*^	*	*	*
2ryy	(8F/L	2BB-\	8cc'\ 8aa	.	2ryy
.	16G/L	.	(4dd^\ 4bb-	.	.
.	16B-/JJ	.	.	.	.
.	16d/LL	.	.	.	.
.	16B-/	.	.	.	.
.	16d/	.	8dd\) 8ff	.	.
.	16f/JJ)	.	.	.	.
*	*v	*v	*	*	*
=147	=147	=147	=147	=147
2ryy	8GG/ 8G	(8.dd\L 8.bbn	.	2ryy
*	*clefG2	*	*	*
.	[4Bn~/ 4f 4g	.	.	.
.	.	16ff\Jk) 16ddd	.	.
.	.	4ff\ 4ddd	.	.
.	8B~/] 8f 8g	.	.	.
*	*clefF4	*	*	*
=148	=148	=148	=148	=148
*	*^	*	*	*
2ryy	(8G/L	2C\	8dd'\ 8bbn	.	2ryy
.	16A/L	.	(4ee^\ 4ccc	.	.
.	16c/JJ	.	.	.	.
.	16e/LL	.	.	.	.
.	16c/	.	.	.	.
.	16e/	.	8ee\) 8gg	.	.
.	16g/JJ)	.	.	.	.
*	*v	*v	*	*	*
=149	=149	=149	=149	=149
2ryy	8AA\ 8A	(8.ee\L 8.ccc#X	.	2ryy
*	*clefG2	*	*	*
.	4c#X/ 4g 4a	.	.	.
.	.	16gg\Jk) 16eee	.	.
.	.	4gg\ 4eee	.	.
.	8c#/ 8g 8a	.	.	.
*	*clefF4	*	*	*
!!LO:LB:g=original
=150	=150	=150	=150	=150
*	*^	*	*	*
2ryy	(8A/L	2D\	8ee'\ 8ccc#X	.	2ryy
.	16Bn/L	.	(4ff^\ 4ddd	.	.
.	16d/JJ	.	.	.	.
.	16f/LL	.	.	.	.
.	16d/	.	.	.	.
.	16f/	.	8ff\) 8aa	.	.
.	16a/JJ)	.	.	.	.
=151	=151	=151	=151	=151	=151
!	!	!	!	!LO:HP:a	!
2ryy	8BBBn/ 8BBn	2BB\	(8.dd\L 8.ff 8.ddd	f <	2ryy
.	4G\ 4d 4f 4g	.	.	.	.
.	.	.	16ff\Jk) 16ddd 16fff	.	.
.	.	.	[4ff\ [4ddd [4fff	[	.
.	[<8G\ [<8d [8f [8g	.	.	.	.
*	*v	*v	*	*	*
=152	=152	=152	=152	=152
*	*	*^	*	*
2ryy	2G\] 2d] 2f] 2g]	2ff\] 2ddd] 2fff]	(8f\L	.	2ryy
.	.	.	16g\L	.	.
.	.	.	16bn\JJ	.	.
.	.	.	16dd\LL	.	.
.	.	.	16b\	.	.
.	.	.	16dd\	.	.
.	.	.	16ff\JJ)	.	.
*	*	*v	*v	*	*
=153	=153	=153	=153	=153
*	*^	*	*	*
!	!	!	!	!LO:HP:a	!
2ryy	8CC/ 8C	2C\	(8.a\L 8.ff 8.aa	<	2ryy
.	4A\ 4c 4f	.	.	.	.
.	.	.	16ff\Jk) 16aa 16fff	.	.
.	.	.	[4ff\ [4aa [4fff	[	.
.	[<8A\ [8c [8f	.	.	.	.
*	*v	*v	*	*	*
=154	=154	=154	=154	=154
*	*	*^	*	*
2ryy	2A;\] 2c] 2f]	2ff\] 2aa] 2fff]	(8c/L	.	2ryy
.	.	.	16d/L	.	.
.	.	.	16f/JJ	.	.
.	.	.	16a/LL	.	.
.	.	.	16f/	.	.
.	.	.	16a/	.	.
.	.	.	16cc;>/JJ)	.	.
!!LO:PB:g=original
=155||	=155||	=155||	=155||	=155||	=155||
*	*^	*	*	*	*
!	!	!	!LO:TX:a:B:t=Tempo I.rubato	!	!	!
2ryy	8r	2FF\ 2C	(8c/L	[2c\	.	2ryy
.	4C^/ [4G	.	16e/L	.	.	.
.	.	.	16g/JJ	.	.	.
.	.	.	16b-/LL	.	.	.
.	.	.	16g/	.	.	.
.	8C/ 8G]	.	16b-/	.	.	.
.	.	.	16dd/JJ)	.	.	.
=156	=156	=156	=156	=156	=156	=156
2ryy	8r	2FF\ 2C	8dd/	8c\]	.	2ryy
.	(4C^/ 4A	.	(4cc^/	4f\	.	.
.	8C/) 8F#X	.	8a/)	8e-X\	.	.
=157	=157	=157	=157	=157	=157	=157
2ryy	8r	2FF\ 2C	8cc/	8r	.	2ryy
.	(4C/ 4G	.	(4b-/	4d\	.	.
.	8C/) 8B-	.	8g/)	8en\	.	.
=158	=158	=158	=158	=158	=158	=158
2ryy	8r	2FF\ 2C	8dd/	8r	.	2ryy
.	(4C/ 4A	.	(4cc/	4f\	.	.
.	8C/) 8F	.	8a/)	8c\	.	.
=159	=159	=159	=159	=159	=159	=159
2ryy	8r	2FF\ 2C	(8c/L	[2c\	.	2ryy
.	4C^/ [4G	.	16e/L	.	.	.
.	.	.	16g/JJ	.	.	.
.	.	.	16b-/LL	.	.	.
.	.	.	16g/	.	.	.
.	8C/ 8G]	.	16b-/	.	.	.
.	.	.	16dd/JJ)	.	.	.
!!LO:LB:g=original
=160	=160	=160	=160	=160	=160	=160
2ryy	8r	2FF\ 2C	8dd/	8c\]	.	2ryy
.	(4C^/ 4A	.	(4cc^/	4f\	.	.
.	8C/) 8F#X	.	8a/)	8e-X\	.	.
=161	=161	=161	=161	=161	=161	=161
2ryy	8r	2FF\ 2C	8cc/	8rg	.	2ryy
.	(4C^/ 4G	.	(4b-^/	4d\	.	.
.	8C/) 8B-	.	8g/)	8en\	.	.
=162	=162	=162	=162	=162	=162	=162
2ryy	(8C/L	2FF\ 2C	2f^/	8r	.	2ryy
.	16D/L	.	.	4c^>\	.	.
.	16F/JJ	.	.	.	.	.
.	16A/LL	.	.	.	.	.
.	16F/	.	.	.	.	.
.	16A/	.	.	8c^>\	.	.
.	16c/JJ)	.	.	.	.	.
*	*	*	*v	*v	*	*
=163	=163	=163	=163	=163	=163
!	!	!	!	!LO:HP:a	!
2ryy	8r	(2FF\	(8.c/L 8.a	<	2ryy
.	[4F'^/	.	.	.	.
.	.	.	16e-X/Jk) 16cc	[	.
.	.	.	4e-/ 4cc	.	.
.	8F'/]	.	.	.	.
=164	=164	=164	=164	=164	=164
2ryy	8r	2BB-\)	8c/ 8a	.	2ryy
!	!	!	!	!LO:HP:a	!
.	[4F'/	.	[4d^/ 4b-	>	.
.	8F'/]	.	8d/] 8f	]	.
!!LO:LB:g=original
=165	=165	=165	=165	=165	=165
2ryy	8r	(2FF#X\	(8.c#X/L 8.a#X	.	2ryy
.	[4F#X~/	.	.	.	.
.	.	.	16e/Jk) 16cc#X	.	.
.	.	.	4e~/ 4cc#	.	.
.	8F#/]	.	.	.	.
=166	=166	=166	=166	=166	=166
2ryy	8r	2BBn\)	(8c#X/ 8a#X	.	2ryy
.	4F#X/	.	4d#X/ 4bn	>	.
!	!	!	!LO:SIC:n=2:v:s=8f#	!	!
.	8F#/	.	8d#/) 8f	]	.
=167	=167	=167	=167	=167	=167
2ryy	8r	(2GG\	(8.dn/L 8.bn	<	2ryy
.	[4G~/	.	.	.	.
.	.	.	16f/Jk) 16dd	[	.
.	.	.	4f~/ 4dd	.	.
.	8G~/]	.	.	.	.
=168	=168	=168	=168	=168	=168
2ryy	8r	2C\)	(8d/ 8bn	>	2ryy
.	[4G~/	.	4e/ 4cc	.	.
.	8G/]	.	8e/) 8g	]	.
=169	=169	=169	=169	=169	=169
2ryy	8AA-X/	2AA-\	(8.e-X/L 8.cc	<	2ryy
.	[4A-X~/	.	.	.	.
.	.	.	16g-X/Jk) 16ee-X	[	.
.	.	.	4g-\ 4ee-	.	.
.	8A-~/]	.	.	.	.
=170	=170	=170	=170	=170	=170
2ryy	8r	2D-X\	(8e-X/ 8cc	.	2ryy
.	4A-X/	.	4f/ 4dd-X	>	.
.	8A-/	.	8f/) 8a-X	]	.
*	*v	*v	*	*	*
!!LO:LB:g=original
=171	=171	=171	=171	=171
2ryy	8BBBn/ 8BBn	(8.f\L 8.ddn	f	2ryy
.	4F\ 4A 4d	.	.	.
.	.	16dd\Jk) 16ff	.	.
.	.	4dd\ 4ff	.	.
.	[8F\ [8A [8d	.	.	.
=172	=172	=172	=172	=172
*	*	*8va	*	*
*	*	*^	*	*
2ryy	8F\] 8A] 8d]	(32ddd/LLL 32fff	32aa\LLL	.	2ryy
.	.	32eee/ 32ggg	32bbn\	.	.
.	.	32ddd/ 32fff	32aa\	.	.
.	.	32eee/JJ 32ggg	32bb\JJ	.	.
.	8r	8ddd/J) 8fff	8aa\J	.	.
*	*	*v	*v	*	*
*	*	*X8va	*	*
*	*	*^	*	*
.	4r	(32aa/LLL 32ddd	32ff\LLL	.	.
.	.	32bbn/ 32eee	32gg\	.	.
.	.	32aa/ 32ddd	32ff\	.	.
.	.	32bb/JJ 32eee	32gg\JJ	.	.
.	.	8aa/J) 8ddd	8ff\J	.	.
*	*	*v	*v	*	*
=173	=173	=173	=173	=173
2ryy	8CC/ 8C	(8.f\L 8.a	.	2ryy
.	4F~\ 4A 4d	.	.	.
.	.	16a\Jk) 16ff	.	.
.	.	4a\ 4ff	.	.
.	[8F~\ [8A [8d	.	.	.
=174	=174	=174	=174	=174
*	*	*8va	*	*
*	*	*^	*	*
2ryy	8F\] 8A] 8d]	(32ccc/LLL 32fff	32aa\LLL	.	2ryy
.	.	32ddd/ 32ggg	32bb-\	.	.
.	.	32ccc/ 32fff	32aa\	.	.
.	.	32ddd/JJ 32ggg	32bb-\JJ	.	.
.	8r	8ccc/J) 8fff	8aa\J	.	.
*	*	*v	*v	*	*
*	*	*X8va	*	*
*	*	*^	*	*
.	4r	(32aa/LLL 32ccc	32ff\LLL	.	.
.	.	32bb-/ 32ddd	32gg\	.	.
.	.	32aa/ 32ccc	32ff\	.	.
.	.	32bb-/JJ 32ddd	32gg\JJ	.	.
.	.	8aa/J) 8ccc	8ff\J	.	.
*	*	*v	*v	*	*
!!LO:LB:g=original
=175	=175	=175	=175	=175
*	*^	*	*	*
2ryy	8EE-/ 8E-	2E-\	(8.f\L 8.a	.	2ryy
.	4A\ 4c 4f	.	.	.	.
.	.	.	16a\Jk) 16ff	.	.
.	.	.	4a\ 4ff	.	.
.	[<8A\ [8c [8f	.	.	.	.
*	*v	*v	*	*	*
=176	=176	=176	=176	=176
*	*	*8va	*	*
*	*	*^	*	*
2ryy	8A\] 8c] 8f]	(32ccc/LLL 32fff	32aa\LLL	.	2ryy
.	.	32ddd/ 32ggg	32bb-\	.	.
.	.	32ccc/ 32fff	32aa\	.	.
.	.	32ddd/JJ 32ggg	32bb-\JJ	.	.
.	8r	8ccc/J) 8fff	8aa\J	.	.
*	*	*v	*v	*	*
*	*	*X8va	*	*
*	*	*^	*	*
.	4r	(32aa/LLL 32ccc	32ff\LLL	.	.
.	.	32bb-/ 32ddd	32gg\	.	.
.	.	32aa/ 32ccc	32ff\	.	.
.	.	32bb-/JJ 32ddd	32gg\JJ	.	.
.	.	8aa/J) 8ccc	8ff\J	.	.
*	*	*v	*v	*	*
=177	=177	=177	=177	=177
!	!	!LO:TX:a:B:t=Rapido	!	!
!	!LO:TUP:b	!LO:TUP:b	!LO:HP:t=cresc._:ext=ud	!
2ryy	(24AA/LL	(24c/LL	p <	2ryy
.	24BB-/	24d/	.	.
.	24C/	24e-X/	.	.
.	24D/	24f/	.	.
.	24E-X/	24g/	.	.
.	24F/JJ	24a/JJ	.	.
!	!LO:TUP:a	!LO:TUP:a	!	!
.	24G\LL	24b-\LL	.	.
.	24A\	24cc\	.	.
.	24B-\	24dd\	.	.
.	24c\	24ee-X\	.	.
.	24d\	24ff\	.	.
.	24e-X\JJ	24gg\JJ	.	.
*	*clefG2	*	*	*
!!LO:LB:g=original
=178	=178	=178	=178	=178
!	!LO:TUP:b	!LO:TUP:a	!	!
2ryy	24f/LL	24aa\LL	.	2ryy
.	24g/	24bb-\	.	.
.	24a/	24ccc\	.	.
.	24b-/	24ddd\	.	.
.	24cc/	24eee-X\	.	.
.	24dd/JJ	24fff\JJ	.	.
*	*	*8va	*	*
.	16ee-X\)	16ggg\LL	.	.
.	16r	32aaa\L	.	.
.	.	32bbb-\	.	.
.	8r	32cccc\	.	.
.	.	32dddd\	.	.
.	.	32eeee-X\	.	.
.	.	32ffff\JJJ	[	.
*	*clefF4	*	*	*
=179	=179	=179	=179	=179
2ryy	8CC#X/ 8C#X	8fff#X\) 8aaa#X 8dddd#X 8ffff#X	ff	2ryy
.	8r	8r	.	.
.	8CCn/ 8Cn	8ggg\ 8bbb- 8eeee 8gggg	.	.
*	*	*X8va	*	*
.	8r	8r	.	.
=180	=180	=180	=180	=180
2ryy	2cT\	4cccT\	.	2ryy
.	.	(32gg\LLL	.	.
.	.	32aa\	.	.
.	.	32bb-\	.	.
.	.	32ccc\	.	.
.	.	32ddd\	.	.
.	.	32eee\	.	.
.	.	32fff\	.	.
.	.	32ggg\JJJ	.	.
=181	=181	=181	=181	=181
2ryy	8.FFF/L 8.FF	8.aa\L) 8.ccc 8.fff 8.aaa	.	2ryy
.	16C/Jk 16F 16A 16c	16f^\Jk 16a 16cc 16ff	.	.
.	4C\ 4F 4A 4c	4f^\ 4a 4cc 4ff	.	.
=182	=182	=182	=182	=182
2ryy	2FFF/ 2FF	2F^;/ 2f	.	2ryy
==:|!	==:|!	==:|!	==:|!	==:|!
*-	*-	*-	*-	*-
!!!system-decoration: (s1){(s2,s3)}(s4)
!!!RDF**kern: < = below
!!!RDF**kern: > = above
!!!RDF**kern: Z = editorial accidental, paren
!!!ENC: Berenika Jozajtis
!!!END: 2023-10-16
!!!EED: Marta Chmielewska
!!!EEV: 2023-10-26
